X: 01050
T: HE'S NEVER WRONG!
C: Bob McQuillen '73
B: Bob's Note Book 1 #50
%R: march, reel
Z: 2019 John Chambers <jc:trillian.mit.edu>
M: C
L: 1/8
K: A
AB \
| c2A2 E2e2 | dcBA B2cd | e2a2 e2d2 | c4 A2AB |\
| c2A2 B2c2 | d2c2 B3A | G2A2 B2d2 | c4 A2 :|
|: GA \
| B2E2 e2ed | c2e2 A2e2 | d2c2 B2A2 | G2A2 B2E2 |\
E2A2 G2B2 | ABcd e2ed | c2e2 B2e2 | c4 A2 :|
%%begintext align
%% For Spenny Wright
%%endtext

%%sep 1 1 500

%%sep 1 1 500

